X:13166
T:Piper's Apron, The
R:slip jig
D:Tommy Keane: The Piper's Apron
Z:id:hn-slipjig-23
M:9/8
K:D
DFA ded cde|DFA d=cA GEA|DFA dfe dAB|1 =c2A AGF GED:|2 =cde dcA GED||
|:d2e fdf ~g3|afd d^cd ecA|1 d2f e^ce dAB|=c2A AGF GED:|2 fed e^ce dAB|=cde dcA GEA||
